src/icons/sun-low.svg

<?xml version="1.0" encoding="UTF-8" standalone="no"?><svg viewBox="0 0 32 32" xmlns="http://www.w3.org/2000/svg" xmlns:xlink="http://www.w3.org/1999/xlink" xml:space="preserve" fill-rule="evenodd" clip-rule="evenodd" stroke-linejoin="round" stroke-miterlimit="2" fill="currentColor"><g transform="translate(-.016 -1.28)"><path d="M15.84 13.728a.894.894 0 0 1-.896-.896V11.52c0-.512.416-.896.896-.896.512 0 .896.416.896.896v1.28c0 .512-.416.928-.896.928m-5.888 1.92-.928-.928a.91.91 0 0 1 0-1.28.91.91 0 0 1 1.28 0l.928.928a.91.91 0 0 1 0 1.28c-.192.16-.416.256-.64.256s-.448-.096-.64-.256m11.136.256c-.224 0-.448-.096-.64-.256a.91.91 0 0 1 0-1.28l.928-.928a.91.91 0 0 1 1.28 0 .91.91 0 0 1 0 1.28l-.928.928c-.192.16-.416.256-.64.256m3.84 3.584c.512 0 .896.416.896.896s-.416.896-.928.896H7.104a.894.894 0 0 1-.896-.896c0-.48.416-.896.896-.896h3.488a5.31 5.31 0 0 1 5.248-4.544c2.688 0 4.864 1.984 5.248 4.544zm-9.088-2.752a3.5 3.5 0 0 0-3.424 2.752h6.848a3.5 3.5 0 0 0-3.424-2.752m6.944 5.408c.512 0 .896.416.896.896s-.384.896-.864.896H9.152a.894.894 0 0 1-.896-.896c0-.48.416-.896.896-.896z"/></g></svg>

<?xml version="1.0" encoding="UTF-8" standalone="no"?>
<!DOCTYPE svg PUBLIC "-//W3C//DTD SVG 1.1//EN" "http://www.w3.org/Graphics/SVG/1.1/DTD/svg11.dtd">
<svg width="100%" height="100%" viewBox="0 0 32 32" version="1.1" xmlns="http://www.w3.org/2000/svg" xmlns:xlink="http://www.w3.org/1999/xlink" xml:space="preserve" xmlns:serif="http://www.serif.com/" style="fill-rule:evenodd;clip-rule:evenodd;stroke-linejoin:round;stroke-miterlimit:2;">
    <g transform="matrix(1,0,0,1,-0.016,-1.28)">
        <path d="M10.592,19.488C10.976,16.896 13.184,14.944 15.84,14.944C18.528,14.944 20.704,16.928 21.088,19.488L19.264,19.488C18.912,17.92 17.536,16.736 15.84,16.736C14.144,16.736 12.768,17.92 12.416,19.488L10.592,19.488ZM15.84,13.728C15.328,13.728 14.944,13.312 14.944,12.832L14.944,11.52C14.944,11.008 15.36,10.624 15.84,10.624C16.352,10.624 16.736,11.04 16.736,11.52L16.736,12.8C16.736,13.312 16.32,13.728 15.84,13.728ZM9.952,15.648L9.024,14.72C8.672,14.368 8.672,13.792 9.024,13.44C9.376,13.088 9.952,13.088 10.304,13.44L11.232,14.368C11.584,14.72 11.584,15.296 11.232,15.648C11.04,15.808 10.816,15.904 10.592,15.904C10.368,15.904 10.144,15.808 9.952,15.648ZM21.088,15.904C20.864,15.904 20.64,15.808 20.448,15.648C20.096,15.296 20.096,14.72 20.448,14.368L21.376,13.44C21.728,13.088 22.304,13.088 22.656,13.44C23.008,13.792 23.008,14.368 22.656,14.72L21.728,15.648C21.536,15.808 21.312,15.904 21.088,15.904Z"/>
    </g>
    <g transform="matrix(1,0,0,1,-0.016,-1.28)">
        <path d="M7.104,19.488L24.928,19.488C25.44,19.488 25.824,19.904 25.824,20.384C25.824,20.864 25.408,21.28 24.896,21.28L7.104,21.28C6.592,21.28 6.208,20.864 6.208,20.384C6.208,19.904 6.624,19.488 7.104,19.488ZM22.784,22.144C23.296,22.144 23.68,22.56 23.68,23.04C23.68,23.52 23.296,23.936 22.816,23.936L9.152,23.936C8.64,23.936 8.256,23.52 8.256,23.04C8.256,22.56 8.672,22.144 9.152,22.144L22.784,22.144Z"/>
    </g>
</svg>
